X:9358
T:Laurel Tree, The
R:reel
D:Mary Bergin: Feadoga Stain 2
D:Bothy Band: Old Hag You've Killed Me
D:Brian Finnegan: When the Party's Over
Z:id:hn-reel-418
M:C|
K:Ador
eA~A2 e2dc|BAGA Bcdg|eA~A2 e2dc|BAGA BA~A2|
eA~A2 e2dc|BAGA Bcd2|~e3f gaaf|gedB A2 (3Bcd:|
eaag egdc|BAGA Bcdg|eaag egdc|BAGA BA~A2|
eaag egdc|BAGA Bcd2|~e3f gaaf|gedB A2 (3Bcd|
eaag egdc|BAGA Bcdg|eaag a2ga|bagb ~a3g|
eaag egdc|BAGA Bcd2|~e3f gaaf|gedB A2 (3Bcd||
"variations"
|:eA~A2 e2dc|(3Bcd GA Bcdg|eA~A2 eA~A2|BAGE ~A3d|
eA~A2 eAdc|(3Bcd GA Bcd2|~e3f gaag|gedB A2 (3Bcd:|
eaag egdc|BdGA Bcdg|eaag e2dc|BAGB ~A3d|
eaag egdc|BdGA Bcd2|~e3f gaag|gedB A2 (3Bcd|
eaag egdc|BdGA Bcdg|eaag a2ga|bd'gb ~a3g|
~a3g egdc|BdGA Bcd2|~e3f gaag|gedB A2 (3Bcd||


